proprietary/assets/icons/gebouwen/fabriek-met-stapel-munten.svg

<svg height="64" viewBox="0 0 64 64" width="64" xmlns="http://www.w3.org/2000/svg"><path d="m0 0h64v64h-64z" fill="none"/><path d="m52.6721 32.9338-1.6721-30.9338c0-1.1046-2.2386-2-5-2s-5 .8954-5 2l-1.0183 20.1597c2.1652 2.0896 4.6332 4.5406 4.7766 4.68.2523.2452.0237.4298.0237.4298l-15.2897-8.7001c-.6666-.377-1.4923.1047-1.4923.8705v4.8572l-10.5197-5.7609c-.6664-.365-1.4803.1173-1.4803.8771v4.8617l-.0399-.012-10.4805-5.7287c-.6663-.3643-1.4796.118-1.4796.8774v2.7031 2.3624 27.5228h29v-8.4513c0-6.1279 7.3086-10.7487 17.001-10.7487.9158 0 1.8021.0539 2.6711.1338zm-37.6721 11.0662h-6v-6h6zm12 0h-6v-6h6z"/><path d="m50.0013 55c7.8498 0 13.9987-3.3747 13.9987-7.6786 0-.6324 0-3.0202 0-3.6548 0-4.2993-6.1489-7.6666-13.9987-7.6666-7.8521 0-14.0013 3.3673-14.0013 7.6666v3.6548c0 .9493.3142 1.8492.865 2.6819-.553.8255-.865 1.7191-.865 2.6633v3.6548c0 4.3039 6.1492 7.6786 14.0013 7.6786 7.8498 0 13.9987-3.3747 13.9987-7.6786v-3.6548c0-.2049-.0266-.4056-.0542-.606-.7144.8958-4.5718 5.1376-13.6127 5.1376-8.0173 0-10.7806-3.8577-11.0668-4.3807-.1169-.2137-.2019-.4362-.0765-.5667 2.5483 1.6889 6.4118 2.7492 10.8115 2.7492zm-11.3001-11c0-2.8444 5.0601-5.15 11.302-5.15s11.302 2.3057 11.302 5.15-5.0601 5.15-11.302 5.15-11.302-2.3057-11.302-5.15z"/><path d="m47.8543 45.7261v.6766h1.5551v-.5565c.3053.0191.6703.0191 1.016.0191h.384v.5374h1.5168v-.6166c2.7834-.2999 4.1094-1.2643 4.1094-2.6701 0-.5469-.0571-.7845-.3076-1.3435h-2.0559c.2123.5182.2886.7773.2886 1.2546 0 .6166-.5938 1.1155-2.0344 1.334v-1.7634h-1.5168v1.8928c-.1907.0096-.384.0193-.6128.0193-.2697 0-.52-.0098-.7872-.0193v-1.8928h-1.5551v1.7538c-1.4023-.2089-2.1322-.6575-2.1322-1.3748 0-.4078.0763-.6454.2479-1.1539h-2.168c-.174.4269-.2312.7269-.2312 1.1226-.0001 1.4157 1.4404 2.4208 4.2834 2.7807z"/></svg>

<?xml version="1.0" encoding="utf-8"?>
<!-- Generator: Adobe Illustrator 17.1.0, SVG Export Plug-In . SVG Version: 6.00 Build 0)  -->
<svg version="1.2" baseProfile="tiny" xmlns="http://www.w3.org/2000/svg" xmlns:xlink="http://www.w3.org/1999/xlink" x="0px"
	 y="0px" width="64px" height="64px" viewBox="0 0 64 64" xml:space="preserve">
<g id="_x36_4px_Boxes">
	<rect fill="none" width="64" height="64"/>
</g>
<g id="Icon">
	<g>
		<path d="M52.6721,32.9338L51,2c0-1.1046-2.2386-2-5-2s-5,0.8954-5,2l-1.0183,20.1597c2.1652,2.0896,4.6332,4.5406,4.7766,4.68
			c0.2523,0.2452,0.0237,0.4298,0.0237,0.4298l-15.2897-8.7001C28.8257,18.1924,28,18.6741,28,19.4399v4.8572l-10.5197-5.7609
			C16.8139,18.1712,16,18.6535,16,19.4133v4.8617l-0.0399-0.012L5.4796,18.5343C4.8133,18.17,4,18.6523,4,19.4117v2.7031v2.3624V52
			h29v-8.4513C33,37.4208,40.3086,32.8,50.001,32.8C50.9168,32.8,51.8031,32.8539,52.6721,32.9338z M15,44H9v-6h6V44z M27,44h-6v-6
			h6V44z"/>
		<path d="M50.0013,55C57.8511,55,64,51.6253,64,47.3214c0-0.6324,0-3.0202,0-3.6548C64,39.3673,57.8511,36,50.0013,36
			C42.1492,36,36,39.3673,36,43.6666c0,0.6346,0,3.0225,0,3.6548c0,0.9493,0.3142,1.8492,0.865,2.6819
			C36.312,50.8288,36,51.7224,36,52.6666v3.6548C36,60.6253,42.1492,64,50.0013,64C57.8511,64,64,60.6253,64,56.3214v-3.6548
			c0-0.2049-0.0266-0.4056-0.0542-0.606c-0.7144,0.8958-4.5718,5.1376-13.6127,5.1376c-8.0173,0-10.7806-3.8577-11.0668-4.3807
			c-0.1169-0.2137-0.2019-0.4362-0.0765-0.5667C41.7381,53.9397,45.6016,55,50.0013,55z M38.7012,44
			c0-2.8444,5.0601-5.15,11.302-5.15s11.302,2.3057,11.302,5.15c0,2.8443-5.0601,5.15-11.302,5.15S38.7012,46.8443,38.7012,44z"/>
		<path d="M47.8543,45.7261v0.6766h1.5551v-0.5565c0.3053,0.0191,0.6703,0.0191,1.016,0.0191h0.384v0.5374h1.5168v-0.6166
			c2.7834-0.2999,4.1094-1.2643,4.1094-2.6701c0-0.5469-0.0571-0.7845-0.3076-1.3435h-2.0559
			c0.2123,0.5182,0.2886,0.7773,0.2886,1.2546c0,0.6166-0.5938,1.1155-2.0344,1.334v-1.7634h-1.5168v1.8928
			c-0.1907,0.0096-0.384,0.0193-0.6128,0.0193c-0.2697,0-0.52-0.0098-0.7872-0.0193v-1.8928h-1.5551v1.7538
			c-1.4023-0.2089-2.1322-0.6575-2.1322-1.3748c0-0.4078,0.0763-0.6454,0.2479-1.1539h-2.168
			c-0.174,0.4269-0.2312,0.7269-0.2312,1.1226C43.5708,44.3611,45.0113,45.3662,47.8543,45.7261z"/>
	</g>
</g>
</svg>
